images/svg/instagram.svg

<svg width="40" height="41" viewBox="0 0 40 41" fill="none" xmlns="http://www.w3.org/2000/svg">
<path d="M12.1663 1.29281H12.6663V1.2832H28.571C34.5356 1.2832 39.4181 6.26789 39.4181 12.3952V29.1692C39.4181 35.2968 34.5353 40.2812 28.5804 40.2812H12.1663C6.20035 40.2812 1.30981 35.3048 1.30981 29.1884V12.4048C1.30981 6.27805 6.20115 1.29281 12.1663 1.29281ZM3.31814 12.4135V12.4144V29.1981C3.31814 34.1842 7.2457 38.2148 12.1663 38.2148H28.5804C33.4836 38.2148 37.4097 34.1827 37.4097 29.1788V12.4048C37.4097 7.4006 33.4833 3.36885 28.571 3.36885H12.1663C7.25349 3.36885 3.32807 7.40093 3.31814 12.4135ZM31.4025 8.4829C31.4025 7.89297 31.8565 7.44489 32.4067 7.44489C32.9568 7.44489 33.4108 7.89297 33.4108 8.4829C33.4108 9.07283 32.9568 9.52092 32.4067 9.52092C31.8565 9.52092 31.4025 9.07283 31.4025 8.4829ZM10.3442 20.787C10.3442 15.1313 14.8689 10.5209 20.3733 10.5209C25.8778 10.5209 30.4025 15.1313 30.4025 20.787C30.4025 26.4428 25.8778 31.0532 20.3733 31.0532C14.8689 31.0532 10.3442 26.4428 10.3442 20.787ZM28.3942 20.787C28.3942 16.2534 24.834 12.597 20.3733 12.597C15.9127 12.597 12.3525 16.2534 12.3525 20.787C12.3525 25.3206 15.9127 28.9771 20.3733 28.9771C24.834 28.9771 28.3942 25.3206 28.3942 20.787Z" fill="#070707" stroke="#070707"/>
</svg>

<svg xmlns="http://www.w3.org/2000/svg" width="40" height="41" fill="none"><path fill="#070707" stroke="#070707" d="M12.166 1.293h.5v-.01h15.905c5.965 0 10.847 4.985 10.847 11.112V29.17c0 6.128-4.883 11.112-10.838 11.112H12.166C6.2 40.281 1.31 35.305 1.31 29.188V12.405C1.31 6.278 6.2 1.293 12.166 1.293Zm-8.848 11.12v16.785c0 4.986 3.928 9.017 8.848 9.017H28.58c4.904 0 8.83-4.032 8.83-9.036V12.405c0-5.004-3.927-9.036-8.839-9.036H12.166c-4.913 0-8.838 4.032-8.848 9.045Zm28.084-3.93c0-.59.454-1.038 1.005-1.038.55 0 1.004.448 1.004 1.038 0 .59-.454 1.038-1.004 1.038s-1.004-.448-1.004-1.038ZM10.345 20.787c0-5.656 4.525-10.266 10.03-10.266 5.504 0 10.029 4.61 10.029 10.266s-4.525 10.266-10.03 10.266c-5.504 0-10.029-4.61-10.029-10.266Zm18.05 0c0-4.534-3.56-8.19-8.02-8.19-4.461 0-8.021 3.656-8.021 8.19 0 4.534 3.56 8.19 8.02 8.19 4.461 0 8.021-3.656 8.021-8.19Z"/></svg>
